!!!COM: Music21
!!!OTL: polka_Paddy-Mop-The-Floor
!!!OMV: polka_Paddy-Mop-The-Floor
**kern
*clefG2
*k[f#c#]
*D:
*M2/4
=1
16dLL
16f#
16a
16ddJJ
=
32ff#LLL
32eeJ
16dd
16b
16aJJ
4ryy
=
32f#LLL
32gJ
16a
16dd
16ff#JJ
4ryy
=
8ee
8r
4ryy
=
16dLL
16f#
16a
16ddJJ
4ryy
=
32ff#LLL
32eeJ
16dd
16b
16aJJ
4ryy
=
32f#LLL
32gJ
16a
16dd
16eeJJ
4ryy
!!linebreak:original
=
8dd
8r
4ryy
=||
*M2/4
16dLL
16f#
16a
16ddJJ
=
32ff#LLL
32eeJ
16dd
16b
16aJJ
4ryy
=
32f#LLL
32gJ
16a
16dd
16ff#JJ
4ryy
=
8ee
8r
4ryy
=
16dLL
16f#
16a
16ddJJ
4ryy
=
32ff#LLL
32eeJ
16dd
16b
16aJJ
4ryy
!!linebreak:original
=
32f#LLL
32gJ
16a
16dd
16eeJJ
4ryy
=
8dd
8r
4ryy
=||
16ff#LL
16aa
16gg
16eeJJ
4ryy
=
32ff#LLL
32eeJ
16dd
16b
16aJJ
4ryy
=
32f#LLL
32gJ
16a
16dd
16ff#JJ
4ryy
=
8ee
8r
4ryy
=
16ff#LL
16aa
16gg
16eeJJ
4ryy
=
32ff#LLL
32eeJ
16dd
16b
16aJJ
4ryy
!!linebreak:original
=
32f#LLL
32gJ
16a
16dd
16eeJJ
4ryy
=
8dd
8r
4ryy
=||
*M2/4
16dLL
16f#
16a
16ddJJ
=
32ff#LLL
32eeJ
16dd
16b
16aJJ
4ryy
=
32f#LLL
32gJ
16a
16dd
16ff#JJ
4ryy
=
8ee
8r
4ryy
=
16dLL
16f#
16a
16ddJJ
4ryy
!!linebreak:original
=
32ff#LLL
32eeJ
16dd
16b
16aJJ
4ryy
=
32f#LLL
32gJ
16a
16dd
16eeJJ
4ryy
=
8dd
8r
4ryy
=||
*M2/4
16dLL
16f#
16a
16ddJJ
=
32ff#LLL
32eeJ
16dd
16b
16aJJ
4ryy
=
32f#LLL
32gJ
16a
16dd
16ff#JJ
4ryy
=
8ee
8r
4ryy
!!linebreak:original
=
16dLL
16f#
16a
16ddJJ
4ryy
=
32ff#LLL
32eeJ
16dd
16b
16aJJ
4ryy
=
32f#LLL
32gJ
16a
16dd
16eeJJ
4ryy
=
8dd
8r
4ryy
=||
16ff#LL
16aa
16gg
16eeJJ
4ryy
=
32ff#LLL
32eeJ
16dd
16b
16aJJ
4ryy
=
32f#LLL
32gJ
16a
16dd
16ff#JJ
4ryy
=
8ee
8r
4ryy
!!linebreak:original
=
16ff#LL
16aa
16gg
16eeJJ
4ryy
=
32ff#LLL
32eeJ
16dd
16b
16aJJ
4ryy
=
32f#LLL
32gJ
16a
16dd
16eeJJ
4ryy
=
8dd
8r
4ryy
=||
*-
